packages/kaspersky-hexa-ui-icons/src/iconsSVGs/32/WhoCalls.svg

<svg width="32" height="32" viewBox="0 0 32 32" fill="none" xmlns="http://www.w3.org/2000/svg">
<path d="M21 5C19.8954 5 19 5.89543 19 7C19 7.55228 18.5523 8 18 8C17.4477 8 17 7.55228 17 7C17 4.79086 18.7909 3 21 3C23.2091 3 25 4.79086 25 7V7.25694C25 8.68026 24.2887 10.0094 23.1044 10.7989L22.4118 11.2606C22.1545 11.4322 22 11.7209 22 12.0302V13C22 13.5523 21.5523 14 21 14C20.4477 14 20 13.5523 20 13V12.0302C20 11.0522 20.4887 10.139 21.3024 9.59652L21.995 9.13483C22.6229 8.71624 23 8.01155 23 7.25694V7C23 5.89543 22.1046 5 21 5Z" fill="black"/>
<path fill-rule="evenodd" clip-rule="evenodd" d="M10.323 8H6C5.44772 8 5 8.44771 5 9C5 16.8041 9.46982 23.5642 15.989 26.8599C16.0306 26.8846 16.0735 26.906 16.1175 26.9242C18.7936 28.253 21.8095 29 25 29H26C26.5523 29 27 28.5523 27 28V24.2638C27 23.3619 26.3964 22.5716 25.5262 22.3343L21.323 21.1879C20.6306 20.9991 19.89 21.1957 19.3825 21.7032L16.3155 24.7702C13.6569 23.303 11.409 21.1831 9.78772 18.6265L13.2408 15.1734C13.8066 14.6076 13.9807 13.7592 13.6836 13.0164L12.1799 9.25722C11.8762 8.4979 11.1408 8 10.323 8ZM18.2305 25.6837C20.3203 26.5325 22.6055 27 25 27V24.2638L20.7968 23.1175L18.2305 25.6837ZM8.77729 16.8085C7.77493 14.7298 7.16032 12.429 7.02731 10H10.323L11.8266 13.7592L8.77729 16.8085Z" fill="black"/>
<path d="M21 17C21.5523 17 22 16.5523 22 16C22 15.4477 21.5523 15 21 15C20.4477 15 20 15.4477 20 16C20 16.5523 20.4477 17 21 17Z" fill="black"/>
</svg>

<svg xmlns="http://www.w3.org/2000/svg" width="32" height="32" fill="none" viewBox="0 0 32 32"><path fill="#000" fill-rule="evenodd" d="M19 7c0-1.1046.8954-2 2-2s2 .8954 2 2v.257a2.257 2.257 0 0 1-1.005 1.8778l-.6926.4617A2.925 2.925 0 0 0 20 12.0302V13c0 .5523.4477 1 1 1s1-.4477 1-1v-.9698a.925.925 0 0 1 .4118-.7696l.6926-.4617A4.257 4.257 0 0 0 25 7.2569V7c0-2.2091-1.7909-4-4-4s-4 1.7909-4 4c0 .5523.4477 1 1 1s1-.4477 1-1m-8.677 1H6c-.5523 0-1 .4477-1 1 0 7.8041 4.4698 14.5642 10.989 17.8599q.0625.037.1285.0643C18.7936 28.253 21.8095 29 25 29h1c.5523 0 1-.4477 1-1v-3.7362a2 2 0 0 0-1.4738-1.9295l-4.2032-1.1464a2 2 0 0 0-1.9405.5153l-3.067 3.067c-2.6586-1.4672-4.9065-3.5871-6.5278-6.1437l3.4531-3.4531a2 2 0 0 0 .4428-2.157l-1.5037-3.7592A2 2 0 0 0 10.323 8m-1.5457 8.8085C7.7749 14.7298 7.1603 12.429 7.0273 10h3.2957l1.5036 3.7592zM22 16c0 .5523-.4477 1-1 1s-1-.4477-1-1 .4477-1 1-1 1 .4477 1 1m-3.7695 9.6837C20.3203 26.5325 22.6055 27 25 27v-2.7362l-4.2032-1.1463z"/></svg>
